public/images/icon_mail.svg

<svg fill="none" height="24" viewBox="0 0 24 24" width="24" xmlns="http://www.w3.org/2000/svg"><path d="m.800049 7.20002 11.199951 6.39998 11.2-6.39998m-20.79995-4.8h19.19995c.8837 0 1.6.71635 1.6 1.6v15.99998c0 .8837-.7163 1.6-1.6 1.6h-19.19995c-.88366 0-1.600001-.7163-1.600001-1.6v-15.99998c0-.88365.716341-1.6 1.600001-1.6z" stroke="#ddd"/></svg>

<svg width="24" height="24" viewBox="0 0 24 24" fill="none" xmlns="http://www.w3.org/2000/svg">
<path d="M0.800049 7.20002L12 13.6L23.2 7.20002M2.40005 2.40002H21.6C22.4837 2.40002 23.2 3.11637 23.2 4.00002V20C23.2 20.8837 22.4837 21.6 21.6 21.6H2.40005C1.51639 21.6 0.800049 20.8837 0.800049 20V4.00002C0.800049 3.11637 1.51639 2.40002 2.40005 2.40002Z" stroke="#DDDDDD"/>
</svg>
